X:1
T:Blarney Roses
M:2/4
L:1/16
K:D
 D2| D3 B A3 B| F3 E D3 A,| B,3 D D3 E| D6 A2| A3 A B3 c| d3 d c3 d|\
 B3 A F3 A| B6| A2| A3 A B3 c| d3 d c3 d| B3 A F3 A| B6 DD| D3 B A3 B|\
 F3 E D3 A,| B,3 D D3 E| D6||
